calendar-lock-open.svg

<svg fill="currentColor" viewBox="0 0 24 24"><path d="M12 21H5c-1.1 0-2-.9-2-2V5c0-1.1.9-2 2-2h1V1h2v2h8V1h2v2h1c1.1 0 2 .9 2 2v6c-.6-.4-1.3-.8-2-.9V8H5v11h7zm10-2.7c0-.7-.6-1.3-1.2-1.3h-4.3v-2.5c0-.8.7-1.3 1.5-1.3s1.5.5 1.5 1.3v.5h1.3v-.5c0-1.4-1.4-2.5-2.8-2.5s-2.8 1.1-2.8 2.5V17c-.6 0-1.2.6-1.2 1.2v3.5c0 .7.6 1.3 1.2 1.3h5.5c.7 0 1.3-.6 1.3-1.2z"/></svg>

<svg  viewBox="0 0 24 24" fill="currentColor"><path  d="M12 21H5C3.9 21 3 20.1 3 19V5C3 3.9 3.9 3 5 3H6V1H8V3H16V1H18V3H19C20.1 3 21 3.9 21 5V11C20.4 10.6 19.7 10.2 19 10.1V8H5V19H12V21M22 18.3C22 17.6 21.4 17 20.8 17H16.5V14.5C16.5 13.7 17.2 13.2 18 13.2S19.5 13.7 19.5 14.5V15H20.8V14.5C20.8 13.1 19.4 12 18 12S15.2 13.1 15.2 14.5V17C14.6 17 14 17.6 14 18.2V21.7C14 22.4 14.6 23 15.2 23H20.7C21.4 23 22 22.4 22 21.8V18.3Z"/></svg>
